X: 29474
T: Night We Had The Goats, The
R: reel
M: 4/4
K: Gmajor
|:dGG2 BGBd|e2eg dBAB|dGG2 BGBd|1 egdB BAA2:|2 egdB A2Bd||
|:e2eg dBBd|e2eg deg2|afge dBBd|1 egdB A2Bd:|2 egdB BAA2||

